X: 4
T: No_101_Song_in_the_Early_Evening_(b).krn
N: Derived from No_101_Song_in_the_Early_Evening_(b).krn
%%abc-version 2.0
%%abcx-abcm2ps-target-version 5.9.1 (29 Sep 2008)
%%abc-creator hum2abc beta
%%abcx-conversion-date 2019/03/15 08:39:19
%%humdrum-veritas 3702445086
%%humdrum-veritas-data 761997371
%%linebreak <none>
%%barnumbers 0
L: 1/8
M: 2/4
%%staves {1 2}
V: 1 clef=bass
V: 2 clef=bass
K: Bb
[V:1] [K:clef=bass][M:2/4]F,F,!fermata!F,2 | 
[V:2] [K:clef=bass][M:2/4]G,,G,, G,, z/ G,,/ | 
[V:1] CC B,C ||  
[V:2] G,,G,, G,, z/ G,,/ ||  
[V:1] [M:3/4]B,2G,2z2 ||  
[V:2] [M:3/4]z6 ||  
[V:1] [M:2/4](3B,G,G, B,B, | 
[V:2] [M:2/4]z4 | 
[V:1] F,B, G,B, ||  
[V:2] z4 ||  
[V:1] [M:3/4]F,3/D,/ D,D,- D,3/F,/ ||  
[V:2] [M:3/4]z6 ||  
[V:1] [M:2/4]G,B, D,F, ||  
[V:2] [M:2/4]z4 ||  
[V:1] [M:3/4]F,2z4 ||  
[V:2] [M:3/4]z6 ||  
[V:1] [M:2/4](3B,G,G, B,B, | 
[V:2] [M:2/4]z4 | 
[V:1] F,B, G,B, ||  
[V:2] z4 ||  
[V:1] [M:3/4]F,3/D,/ D,D,- D,3/F,/ ||  
[V:2] [M:3/4]z6 ||  
[V:1] [M:2/4]G,B, D,F, ||  
[V:2] [M:2/4]z4 ||  
[V:1] [M:3/4]F,2z4 | 
[V:2] [M:3/4]z6 | 
[V:1] z6 | 
[V:2] z6 | 
[V:1] [M:2/4]F,/F,3/ F, z | 
[V:2] [M:2/4]z4 | 
[V:1] C2B,C ||  
[V:2] z4 ||  
[V:1] [M:3/4]B,2G,2z2 ||  
[V:2] [M:3/4]z6 ||  
[V:1] [M:2/4](3B,G,G, B,B, | 
[V:2] [M:2/4]z4 | 
[V:1] F,B, G,B, ||  
[V:2] z4 ||  
[V:1] [M:3/4]F,3/D,/ D,D,- D,3/F,/ ||  
[V:2] [M:3/4]z6 ||  
[V:1] [M:2/4]G,B, D,F, | 
[V:2] [M:2/4]z4 | 
[V:1] F,2z2 |]  
[V:2] z4 |]  



